src/client/src/assets/icons/owner-tag.svg

<svg width="100" height="100" viewBox="0 0 100 100" fill="none" xmlns="http://www.w3.org/2000/svg">
<rect width="100" height="100" rx="8" fill="#47BD5A"/>
<path d="M46.2534 18.0198C47.5492 14.5544 52.4508 14.5544 53.7466 18.0198L59.4413 33.2493C60.0035 34.7527 61.4098 35.7744 63.0133 35.8445L79.2572 36.5543C82.9534 36.7158 84.4681 41.3776 81.5728 43.6808L68.8484 53.803C67.5923 54.8022 67.0551 56.4555 67.484 58.0021L71.8286 73.6703C72.8172 77.2355 68.8516 80.1167 65.7664 78.0748L52.2076 69.1011C50.8692 68.2152 49.1308 68.2152 47.7924 69.1011L34.2336 78.0748C31.1484 80.1167 27.1828 77.2355 28.1714 73.6703L32.516 58.0021C32.9449 56.4555 32.4077 54.8022 31.1516 53.803L18.4272 43.6808C15.5319 41.3776 17.0466 36.7158 20.7428 36.5543L36.9867 35.8445C38.5902 35.7744 39.9965 34.7527 40.5587 33.2493L46.2534 18.0198Z" fill="white"/>
</svg>

<svg width="100" height="100" fill="none" xmlns="http://www.w3.org/2000/svg"><rect width="100" height="100" rx="8" fill="#47BD5A"/><path d="M46.253 18.02c1.296-3.466 6.198-3.466 7.494 0l5.694 15.23a4 4 0 0 0 3.572 2.594l16.244.71c3.696.162 5.211 4.824 2.316 7.127L68.848 53.803a4 4 0 0 0-1.364 4.2l4.345 15.667c.988 3.566-2.977 6.447-6.063 4.405L52.208 69.1a4 4 0 0 0-4.416 0l-13.558 8.974c-3.086 2.042-7.051-.84-6.063-4.405l4.345-15.668a4 4 0 0 0-1.364-4.199L18.427 43.681c-2.895-2.303-1.38-6.965 2.316-7.127l16.244-.71a4 4 0 0 0 3.572-2.595l5.694-15.23z" fill="#fff"/></svg>
